X: 2045
T: Zeytin Gözlüm
C: Selahattin İçli
O: Turkey
F: http://compmusic.upf.edu/node/140
N: huseyni--sarki--sofyan--zeytin_gozlum--selahattin_icli
N: makam= huseyni
N: form= sarki
N: usul= sofyan = 4/4
M: 4/4
L: 1/16
K: C _2/4B ^3/4f  
Q: 1/4=63
%%MIDI tuningsystem comma53
z2ee dec2 ee2e dec2  | ee2e e4 AA2A A4  | \
w:   |   | 
z2ee dec2 ee2e dec2  | 
w:   | 
ee2e e4 AA2A A4  | z2fg a2a2 za2a g=fed  | \
w:   |   | 
cc2c c4 z4 cBAG  | 
w:   | 
B2c2 B2c2 z2Bc B2A2  | ee2e e4 g=fed cBAG  | 
w:   |   | 
z2Bc B2c2 zB2c d2B2  | zA2A A4 zA2A A4  | \
w:   |   | 
d2e2 d2e2 z2ee d2c2  | 
w:  Zey tin  göz lüm  sa na  mey lim   | 
ee3 e4 AA3 A4  | AA2A e4 z2fg fg3  | \
w:  ne den dir   SAZ  |  Bu  sev me nin  ka ba ha ti   | 
zf2e e4 zdcB A4  | 
w:  kim de dir   SAZ  | 
d2e2 d2e2 z2ee d2c2  | ee3 e4 AA3 A4  | \
w:  Zey tin  göz lüm  sa na  mey lim   |  ne den dir   SAZ  | 
AA2A e4 z2fg fg3  | 
w:  Bu  sev me nin  ka ba ha ti   | 
zf2e e4 defg a4  | fg3 a2a2 aa3 g=fed  | \
w:  kim de dir   SAZ  |  Gül_ ol muş sun  di ken le *  rin   | 
cc2c c4 z4 cBAG  | 
w:  *  ben de dir   SAZ  | 
B2c2 B2c2 Bc3 B2A2  | ee3 e4 g=fed cBAG  | \
w:  Zey tin  göz lüm  u zak lar da   |  i şin  ne   SAZ  | 
zB2c Bc3 z2Bc dB3  | 
w:  Şar kı la rı  dü şü rü rüm   | 
z2AA A4 ABcd efga  | fg3 a2a2 aa3 g=fed  | 
w:  pe şi ne   SAZ  |  Gül_ ol muş sun  di ken le *  rin   | 
cc2c c4 z4 cBAG  | B2c2 B2c2 Bc3 B2A2  | \
w:  *  ben de dir   SAZ  |  Zey tin  göz lüm  u zak lar da   | 
ee3 e4 g=fed cBAG  | 
w:  i şin  ne   SAZ  | 
zB2c Bc3 z2Bc dB3  | z2AA A4 z2AA A4  | \
w:  Şar kı la rı  dü şü rü rüm   |  pe şi ne   SAZ  | 
z2ee dec2 ee2e dec2  | 
w:  SAZ  | 
ee2e e4 AA2A A4  | z2ee dec2 ee2e dec2  | \
w:   |  SAZ  | 
ee2e e4 AA2A A4  | 
w:   | 
z2fg a2a2 za2a g=fed  | cc2c c4 z4 cBAG  | 
w:   |   | 
B2c2 B2c2 z2Bc B2A2  | ee2e e4 g=fed cBAG  | 
w:   |   | 
z2Bc B2c2 zB2c d2B2  | zA2A A4 za2a c'bag  | 
w:   |   | 
b2c'2 b2c'2 zb2c' b2a2  | aa2a a4 ABcd efga  | 
w:  Zey tin  göz lüm  öz lem_ ek tim   |  *  yol la ra   SAZ  | 
zf2g a2a2 zb2g f2g2  | zf2e e4 z4 c'bag  | \
w:  Rast ge lir sen  hâ li mi  sor   |  on la ra   SAZ  | 
b2c'2 b2c'2 zb2c' b2a2  | 
w:  Zey tin  göz lüm  öz lem_ ek tim   | 
aa2a a4 ABcd efga  | zf2g a2a2 zb2g f2g2  | 
w:  *  yol la ra   SAZ  |  Rast ge lir sen  hâ li mi  sor   | 
zf2e e4 defg a4  | zf2g aa3 a2a2 gfed  | \
w:  on la ra   SAZ  |  Gül  ku ru su  ak şam lar  *  sen  | 
cc2c c4 z4 cBAG  | 
w:  *  den  ya na   SAZ  | 
B2c2 B2c2 Bc3 B2A2  | ee3 e4 g=fed cBAG  | \
w:  Zey tin  göz lüm  u zak lar da   |  i şin  ne   SAZ  | 
zB2c Bc3 z2Bc dB3  | 
w:  Şar kı la rı  dü şü rü rüm   | 
z2AA A4 ABcd efga  | zf2g aa3 a2a2 gfed  | 
w:  pe şi ne   SAZ  |  Gül  ku ru su  ak şam lar  *  sen  | 
cc2c c4 z4 cBAG  | B2c2 B2c2 Bc3 B2A2  | \
w:  *  den  ya na   SAZ  |  Zey tin  göz lüm  u zak lar da   | 
ee3 e4 g=fed cBAG  | 
w:  i şin  ne   SAZ  | 
zB2c Bc3 z2Bc dB3  | z2AA A4 z2AA A4  | |


